X: 107
M: 3/4
L: 1/8
K: D
(AG) | F3 G A2 | A f3 e2 | d2 B2 B2 | B4
d4 ][ (de) | f3 e f2 | a4 f e | d2 B2 c2 |
d4 d e | f3 g f2 | e2 d2 e2 | f3 d B2 |
d2 B2 B2 | B4 A G | F3 G A2 | A d3 e2 |
f2 d2 d2 | d4 ][ d e | f3 e f2 | a f3 e2 |
d2 B3 c | d4 (de) | f3 g f2 | e2 d2 e2 |
f3 d B2 | B4 |]

